<?xml version="1.0" encoding="UTF-8"?>
<map version="1.10" tiledversion="1.11.2" orientation="orthogonal" renderorder="right-down" width="27" height="22" tilewidth="111" tileheight="111" infinite="0" nextlayerid="6" nextobjectid="81">
 <tileset firstgid="1" name="Tilemap2" tilewidth="111" tileheight="111" tilecount="32" columns="8">
  <image source="../blocks/Tilemap2.png" width="888" height="444"/>
 </tileset>
 <layer id="1" name="floor" width="27" height="22">
  <data encoding="csv">
9,9,9,9,9,9,9,9,9,9,9,9,9,9,9,9,9,9,9,9,9,9,9,9,9,9,9,
9,2,2,2,2,2,2,2,2,2,2,2,9,2,2,2,2,9,9,9,4,4,4,4,4,4,9,
9,2,2,2,2,2,2,2,9,9,9,2,2,2,9,9,2,2,2,2,4,4,4,4,4,4,9,
9,2,2,2,2,2,2,2,9,9,9,9,9,9,9,9,9,9,9,9,9,9,9,9,9,9,9,
9,2,2,2,2,2,2,2,9,9,9,9,9,9,3,9,9,2,2,2,2,2,2,2,2,2,9,
9,9,9,9,9,9,9,9,9,9,9,9,9,9,9,9,9,2,2,2,2,2,2,2,2,2,9,
9,2,2,2,2,2,2,2,9,9,3,9,9,3,9,9,9,2,2,2,2,2,2,2,2,2,9,
9,2,2,2,2,2,2,2,9,9,9,9,9,9,9,9,9,2,2,2,2,2,2,2,2,2,9,
9,2,2,2,2,2,2,2,9,9,9,9,3,9,9,9,9,2,2,2,2,2,2,2,2,2,9,
9,2,2,2,2,2,2,9,9,9,9,9,9,9,9,9,9,9,9,9,9,9,9,9,9,9,9,
9,2,2,2,2,2,2,2,9,3,9,9,9,9,9,3,9,3,3,3,9,9,9,9,9,3,9,
9,2,2,2,2,2,9,9,9,9,9,9,9,9,9,9,9,3,3,9,9,9,9,3,9,9,9,
9,2,2,2,2,2,9,3,3,3,3,3,9,9,9,9,9,9,9,9,9,9,9,9,9,9,9,
9,2,2,2,2,3,9,9,9,9,9,9,9,9,9,9,9,9,3,3,3,9,9,9,9,9,9,
9,2,2,2,2,2,9,3,9,9,9,9,9,9,9,9,9,9,3,3,3,9,9,9,9,9,9,
9,2,2,2,2,2,9,9,9,9,9,3,9,9,9,9,9,9,3,3,3,9,9,9,9,9,9,
9,9,9,9,9,9,9,9,9,3,9,9,9,9,9,9,9,9,3,3,3,9,9,9,9,9,9,
9,9,9,9,3,9,9,3,9,9,9,9,9,9,9,9,9,9,3,9,3,9,9,9,9,9,9,
9,1610612740,1610612740,9,9,3,9,9,9,9,9,9,9,9,9,9,9,9,9,9,9,9,9,9,9,9,9,
1610612740,1610612740,1610612740,9,9,9,9,9,9,9,9,9,9,9,9,9,9,9,9,9,9,9,9,9,9,9,9,
9,1610612740,1610612740,9,9,9,9,9,9,9,9,9,9,9,9,9,9,9,9,9,9,9,9,9,9,9,9,
9,9,9,9,9,9,9,9,9,9,9,9,9,9,9,9,9,9,9,9,9,9,9,9,9,9,9
</data>
 </layer>
 <layer id="3" name="floor2" width="27" height="22">
  <data encoding="csv">
0,0,0,0,0,0,0,0,0,0,0,0,0,0,0,0,0,0,0,0,0,0,0,0,0,0,0,
0,0,0,0,0,0,0,0,0,0,0,0,0,0,0,0,0,0,0,0,0,0,0,0,0,0,0,
0,0,0,0,0,0,0,0,0,0,0,0,0,0,0,0,0,0,0,0,0,0,0,0,0,0,0,
0,0,0,0,0,0,0,0,0,0,0,0,0,0,0,0,0,0,0,0,0,0,0,0,0,0,0,
0,0,0,0,0,0,0,0,0,0,0,0,0,0,0,0,0,0,0,0,0,0,0,0,0,0,0,
0,0,0,0,0,0,0,0,0,0,0,0,0,0,0,0,0,0,0,0,0,0,0,0,0,0,0,
0,0,0,0,0,0,0,0,0,0,0,0,0,0,0,0,0,0,0,0,0,0,0,0,0,0,0,
0,0,0,0,0,0,0,0,0,0,0,0,0,0,0,0,0,0,0,0,0,0,0,0,0,0,0,
0,0,0,0,0,0,0,0,0,0,0,0,0,0,0,0,0,0,0,0,0,0,0,0,0,0,0,
0,0,0,0,0,0,0,0,0,0,0,0,0,0,0,0,0,0,0,0,0,0,0,0,0,0,0,
0,0,0,0,0,0,0,0,0,0,0,0,0,0,0,0,0,0,0,0,0,0,0,0,0,0,0,
0,0,0,0,0,0,0,0,0,0,0,0,0,0,0,0,0,0,0,0,0,0,0,0,0,0,0,
0,0,0,0,0,0,0,0,0,0,0,0,0,0,0,0,0,0,0,0,0,0,0,0,0,0,0,
0,0,0,0,0,0,0,0,0,0,0,0,0,0,0,0,0,0,0,0,0,0,0,0,0,0,0,
0,0,0,0,0,0,0,0,0,0,0,0,0,0,0,0,0,0,0,0,0,0,0,0,0,0,0,
0,0,0,0,0,0,0,0,0,0,0,0,0,0,0,0,0,0,0,0,0,0,0,0,0,0,0,
0,0,0,0,0,0,0,0,0,0,0,0,0,0,0,0,0,0,0,0,0,0,0,0,0,0,0,
0,0,0,0,0,0,0,0,0,0,0,0,0,0,0,0,0,0,0,0,0,0,0,0,0,0,0,
0,0,0,0,0,0,0,0,0,0,0,0,0,0,0,0,0,0,0,0,0,0,0,0,0,0,0,
26,0,0,0,0,0,0,0,0,0,0,0,0,0,0,0,0,0,0,0,0,0,0,0,0,0,0,
0,0,0,0,0,0,0,0,0,0,0,0,0,0,0,0,0,0,0,0,0,0,0,0,0,0,0,
0,0,0,0,0,0,0,0,0,0,0,0,0,0,0,0,0,0,0,0,0,0,0,0,0,0,0
</data>
 </layer>
 <layer id="4" name="wall" width="27" height="22">
  <data encoding="csv">
15,15,15,15,15,15,15,15,15,15,15,15,15,15,15,15,15,15,15,15,15,15,15,15,15,15,15,
15,0,0,0,0,0,0,0,0,0,0,0,7,0,0,0,0,7,7,7,0,0,0,0,0,0,15,
15,0,0,0,0,0,0,0,1,7,7,0,0,0,7,7,0,0,0,0,0,0,0,0,0,0,15,
15,0,0,0,0,0,0,0,15,15,15,15,15,15,15,15,15,15,15,15,15,15,15,15,15,15,15,
15,0,0,0,0,0,0,0,15,15,15,15,15,15,15,15,15,0,0,0,0,0,0,0,0,0,15,
15,15,15,15,0,15,15,15,15,15,15,15,15,15,15,15,15,0,0,0,0,0,0,0,0,15,15,
15,0,0,0,0,0,0,0,15,0,0,0,0,0,0,0,15,0,0,0,0,0,0,0,0,0,0,
15,0,0,0,0,0,0,0,15,0,0,0,0,0,0,0,15,0,0,0,0,0,0,0,0,15,15,
15,0,0,0,0,0,0,0,15,0,0,0,0,0,0,0,15,0,0,0,0,0,0,0,0,0,15,
15,0,0,0,0,0,0,15,15,0,0,0,0,0,0,0,15,15,15,15,15,15,15,0,15,15,15,
15,0,0,0,0,0,0,0,0,0,0,0,0,0,0,0,0,0,0,0,0,0,0,0,0,0,15,
15,0,0,0,0,0,15,15,0,0,0,0,0,0,0,0,0,0,0,0,0,0,0,0,0,0,15,
15,0,0,0,0,0,15,0,0,0,0,0,0,0,0,0,0,15,15,15,15,1,15,15,15,15,15,
15,0,0,0,0,0,15,0,0,0,0,0,0,0,0,0,0,15,0,0,0,7,0,0,0,0,15,
15,0,0,0,0,0,15,0,0,0,0,0,0,0,0,0,0,15,0,0,0,7,0,0,0,0,15,
15,0,0,0,0,0,15,0,0,0,0,0,0,0,0,0,0,15,0,0,0,1,0,0,0,0,15,
15,15,15,15,15,15,15,0,0,0,0,0,0,0,0,0,0,15,0,0,0,7,0,0,0,0,15,
15,15,15,15,0,0,0,0,0,0,0,0,0,0,0,0,0,15,0,0,0,7,0,0,0,0,15,
15,15,15,0,0,0,0,0,0,0,0,0,0,0,0,0,0,15,0,0,0,1,0,0,0,0,15,
0,0,0,1610612740,1610612740,1610612740,1610612740,1610612740,1610612740,15,15,15,15,15,15,15,1610612740,1610612740,1610612740,1610612740,1610612740,1610612740,1610612740,1610612740,1610612740,1610612740,15,
15,0,0,1610612740,1610612740,1610612740,1610612740,1610612740,1,15,15,15,15,15,15,15,15,15,1610612740,1610612740,1610612740,1610612740,1610612740,1610612740,1610612740,1610612740,15,
15,15,15,15,15,15,15,15,15,15,15,15,15,15,15,15,15,15,15,15,15,15,15,15,15,15,15
</data>
 </layer>
 <layer id="5" name="objects" width="27" height="22">
  <data encoding="csv">
0,0,0,0,0,0,0,0,0,0,0,0,0,0,0,0,0,0,0,0,0,0,0,0,0,0,0,
0,8,8,8,8,8,0,0,0,0,0,0,0,0,0,0,0,0,0,0,0,0,0,0,0,0,0,
0,8,0,6,0,6,0,0,0,0,0,0,0,0,0,0,0,0,0,0,0,0,0,0,0,0,0,
0,8,0,6,0,6,0,0,0,0,0,0,0,0,0,0,0,0,0,0,0,0,0,0,0,0,0,
0,8,8,0,0,0,0,0,0,0,0,0,0,0,0,0,0,8,8,8,8,8,8,8,8,8,0,
0,0,0,13,0,0,0,0,0,0,0,0,0,0,0,0,0,14,0,0,0,0,0,0,0,0,0,
0,14,0,0,0,0,0,0,0,0,0,0,0,0,0,0,0,8,6,0,6,0,6,0,0,2,2,
0,0,0,0,0,0,0,0,0,0,0,0,0,0,0,0,0,14,6,0,6,0,6,0,0,0,0,
0,14,10,10,0,0,0,0,0,0,0,0,0,0,0,0,0,8,14,8,14,8,0,0,8,8,0,
0,0,0,0,0,0,0,0,0,0,0,0,0,0,0,0,0,0,0,0,0,0,13,0,0,0,0,
0,14,0,0,0,0,0,0,0,0,0,0,0,0,0,0,0,0,0,0,0,0,0,0,0,0,0,
0,0,0,0,0,0,0,0,0,0,0,0,0,0,0,0,0,0,0,0,0,0,0,0,0,0,0,
0,14,0,0,10,10,0,0,0,0,0,0,0,0,0,0,0,0,0,0,0,0,0,0,0,0,0,
0,0,0,0,0,0,0,0,0,0,0,31,0,0,0,10,0,0,0,0,0,0,14,0,0,14,0,
0,0,0,0,0,0,0,0,0,0,0,0,0,0,0,0,0,0,0,0,0,0,0,0,0,0,0,
0,14,0,14,0,14,0,0,0,0,0,0,0,0,0,0,0,0,0,0,0,0,0,0,0,0,0,
0,0,0,0,0,0,0,0,0,0,0,0,0,0,0,0,0,0,0,0,0,0,0,0,0,0,0,
0,0,0,0,0,0,0,0,0,0,0,10,0,0,10,0,0,0,0,0,14,0,14,23,23,23,0,
0,0,0,0,0,0,0,0,0,0,0,0,0,0,0,0,0,0,14,0,14,0,10,10,0,10,0,
0,0,0,0,0,0,0,0,0,0,0,0,0,0,0,0,0,0,0,0,0,0,0,0,0,0,0,
0,0,0,0,0,0,0,0,0,0,0,0,0,0,0,0,0,0,0,0,0,0,0,0,0,0,0,
0,0,0,0,0,0,0,0,0,0,0,0,0,0,0,0,0,0,0,0,0,0,0,0,0,0,0
</data>
 </layer>
 <objectgroup id="2" name="objects">
  <object id="2" type="FinalPosition" x="2938.83" y="720.727"/>
  <object id="3" type="PlayerRespawn" x="45.8865" y="2151.34">
   <point/>
  </object>
  <object id="4" type="Laser" gid="16" x="1553.23" y="221.102" width="111" height="111">
   <properties>
    <property name="Damage" type="int" value="100"/>
    <property name="ID" type="int" value="1"/>
    <property name="isStatic" type="bool" value="false"/>
    <property name="isStoppable" type="bool" value="false"/>
   </properties>
  </object>
  <object id="5" type="Laser" gid="16" x="1329.75" y="332.163" width="111" height="111">
   <properties>
    <property name="Damage" type="int" value="100"/>
    <property name="ID" type="int" value="1"/>
    <property name="isStatic" type="bool" value="false"/>
    <property name="isStoppable" type="bool" value="false"/>
   </properties>
  </object>
  <object id="6" type="Laser" gid="16" x="997.561" y="221.83" width="111" height="111">
   <properties>
    <property name="Damage" type="int" value="100"/>
    <property name="ID" type="int" value="1"/>
    <property name="isStatic" type="bool" value="false"/>
    <property name="isStoppable" type="bool" value="false"/>
   </properties>
  </object>
  <object id="47" type="ShieldKit" gid="21" x="2012.94" y="1568.84" width="111" height="111">
   <properties>
    <property name="value" type="int" value="15"/>
   </properties>
  </object>
  <object id="7" type="EnemyPosition" x="2548.98" y="1624.2">
   <ellipse/>
  </object>
  <object id="11" type="Box" gid="23" x="2002.76" y="1569.5" width="111" height="111">
   <properties>
    <property name="health" type="int" value="100"/>
   </properties>
  </object>
  <object id="14" type="Note" gid="11" x="541.833" y="2315.08" width="111" height="111">
   <properties>
    <property name="title" value="The bullets of the turret are the key"/>
   </properties>
  </object>
  <object id="15" type="Console" gid="18" x="1559.59" y="1830.59" width="111" height="111">
   <properties>
    <property name="ID" type="int" value="0"/>
    <property name="password" value="1001"/>
   </properties>
  </object>
  <object id="17" type="Box" gid="23" x="2110.67" y="1569.67" width="111" height="111">
   <properties>
    <property name="health" type="int" value="100"/>
   </properties>
  </object>
  <object id="19" type="Battery" gid="19" x="222.833" y="1779.17" width="111" height="111"/>
  <object id="20" type="Box" gid="23" x="456.833" y="998.5" width="111" height="111">
   <properties>
    <property name="health" type="int" value="100"/>
   </properties>
  </object>
  <object id="21" type="Box" gid="23" x="566.5" y="1003.5" width="111" height="111">
   <properties>
    <property name="health" type="int" value="100"/>
   </properties>
  </object>
  <object id="22" type="Box" gid="23" x="580.5" y="897.5" width="111" height="111">
   <properties>
    <property name="health" type="int" value="100"/>
   </properties>
  </object>
  <object id="23" type="Box" gid="23" x="645.5" y="2000.5" width="111" height="111">
   <properties>
    <property name="health" type="int" value="100"/>
   </properties>
  </object>
  <object id="24" type="Box" gid="23" x="649.5" y="2104.5" width="111" height="111">
   <properties>
    <property name="health" type="int" value="100"/>
   </properties>
  </object>
  <object id="25" type="Box" gid="23" x="653.5" y="2214.5" width="111" height="111">
   <properties>
    <property name="health" type="int" value="100"/>
   </properties>
  </object>
  <object id="27" type="Box" gid="23" x="1996.17" y="1698.83" width="111" height="111">
   <properties>
    <property name="health" type="int" value="100"/>
   </properties>
  </object>
  <object id="28" type="Box" gid="23" x="2216.83" y="1697.84" width="111" height="111">
   <properties>
    <property name="health" type="int" value="100"/>
   </properties>
  </object>
  <object id="32" type="EnemyPosition" x="488.167" y="1504.5">
   <ellipse/>
  </object>
  <object id="34" type="Battery" gid="19" x="1100.24" y="792.091" width="111" height="111"/>
  <object id="38" type="Box" gid="23" x="992.333" y="987.33" width="111" height="111">
   <properties>
    <property name="health" type="int" value="100"/>
   </properties>
  </object>
  <object id="68" type="Battery" gid="19" x="2654.5" y="1650.5" width="111" height="111"/>
  <object id="40" type="Door" gid="24" x="2552.18" y="1111.21" width="111" height="111">
   <properties>
    <property name="ID" type="int" value="0"/>
    <property name="isActivate" type="bool" value="false"/>
   </properties>
  </object>
  <object id="41" type="BatteryStructure" gid="12" x="2443" y="1109.92" width="111" height="111">
   <properties>
    <property name="ID" type="int" value="0"/>
    <property name="numBatteries" type="int" value="4"/>
   </properties>
  </object>
  <object id="42" type="Door" gid="24" x="443.228" y="666.227" width="111" height="111">
   <properties>
    <property name="ID" type="int" value="1"/>
    <property name="isActivate" type="bool" value="true"/>
   </properties>
  </object>
  <object id="44" type="Box" gid="23" x="2110.17" y="1697.84" width="111" height="111">
   <properties>
    <property name="health" type="int" value="100"/>
   </properties>
  </object>
  <object id="45" type="Box" gid="23" x="2223.5" y="1572.16" width="111" height="111">
   <properties>
    <property name="health" type="int" value="100"/>
   </properties>
  </object>
  <object id="46" type="Box" gid="23" x="1028.12" y="1555.42" width="111" height="111">
   <properties>
    <property name="health" type="int" value="100"/>
   </properties>
  </object>
  <object id="48" type="Coin" gid="22" x="113.5" y="876.5" width="111" height="111">
   <properties>
    <property name="value" type="int" value="10"/>
   </properties>
  </object>
  <object id="49" type="EnemyPosition" x="358.5" y="807.833">
   <ellipse/>
  </object>
  <object id="54" type="HealthKit" gid="20" x="430.833" y="1222.5" width="111" height="111">
   <properties>
    <property name="value" type="int" value="15"/>
   </properties>
  </object>
  <object id="55" type="BlueLightPoint" x="388.337" y="613.891">
   <ellipse/>
  </object>
  <object id="56" gid="30" x="1212.62" y="1564.49" width="111" height="111"/>
  <object id="57" type="Box" gid="23" x="653.5" y="2313.5" width="111" height="111">
   <properties>
    <property name="health" type="int" value="100"/>
   </properties>
  </object>
  <object id="58" type="Box" gid="23" x="1995.5" y="1836.99" width="111" height="111">
   <properties>
    <property name="health" type="int" value="100"/>
   </properties>
  </object>
  <object id="59" type="Box" gid="23" x="2216.16" y="1836" width="111" height="111">
   <properties>
    <property name="health" type="int" value="100"/>
   </properties>
  </object>
  <object id="60" type="Box" gid="23" x="2109.5" y="1836" width="111" height="111">
   <properties>
    <property name="health" type="int" value="100"/>
   </properties>
  </object>
  <object id="61" type="Battery" gid="19" x="1660.5" y="879.833" width="111" height="111"/>
  <object id="63" type="Laser" gid="16" x="1664.25" y="221.292" width="111" height="111">
   <properties>
    <property name="Damage" type="int" value="100"/>
    <property name="ID" type="int" value="1"/>
    <property name="isStatic" type="bool" value="false"/>
    <property name="isStoppable" type="bool" value="false"/>
   </properties>
  </object>
  <object id="64" type="Laser" gid="16" x="1884.86" y="332.455" width="111" height="111">
   <properties>
    <property name="Damage" type="int" value="100"/>
    <property name="ID" type="int" value="1"/>
    <property name="isStatic" type="bool" value="false"/>
    <property name="isStoppable" type="bool" value="false"/>
   </properties>
  </object>
  <object id="65" type="Laser" gid="16" x="2106.38" y="332.379" width="111" height="111">
   <properties>
    <property name="Damage" type="int" value="100"/>
    <property name="ID" type="int" value="1"/>
    <property name="isStatic" type="bool" value="false"/>
    <property name="isStoppable" type="bool" value="false"/>
   </properties>
  </object>
  <object id="66" type="Coin" gid="22" x="2435.5" y="325.5" width="111" height="111">
   <properties>
    <property name="value" type="int" value="10"/>
   </properties>
  </object>
  <object id="67" type="Note" gid="11" x="2549.5" y="324" width="111" height="111">
   <properties>
    <property name="title" value="You were "/>
   </properties>
  </object>
  <object id="69" type="Box" gid="23" x="1627.17" y="1657.83" width="111" height="111">
   <properties>
    <property name="health" type="int" value="100"/>
   </properties>
  </object>
  <object id="74" type="Box" gid="23" x="676.5" y="931.833" width="111" height="111">
   <properties>
    <property name="health" type="int" value="100"/>
   </properties>
  </object>
  <object id="75" type="Box" gid="23" x="776.833" y="885.167" width="111" height="111">
   <properties>
    <property name="health" type="int" value="100"/>
   </properties>
  </object>
  <object id="77" type="Box" gid="23" x="774.5" y="1216.5" width="111" height="111">
   <properties>
    <property name="health" type="int" value="100"/>
   </properties>
  </object>
  <object id="78" type="Box" gid="23" x="885.167" y="1219.17" width="111" height="111">
   <properties>
    <property name="health" type="int" value="100"/>
   </properties>
  </object>
  <object id="79" type="ShieldKit" gid="21" x="2640.5" y="242.5" width="111" height="111">
   <properties>
    <property name="value" type="int" value="15"/>
   </properties>
  </object>
 </objectgroup>
</map>
