<?xml version="1.0" encoding="UTF-8"?>
<map version="1.10" tiledversion="1.11.2" orientation="orthogonal" renderorder="right-down" width="25" height="30" tilewidth="111" tileheight="111" infinite="0" nextlayerid="5" nextobjectid="5">
 <editorsettings>
  <export target="Level1.json" format="json"/>
 </editorsettings>
 <tileset firstgid="1" source="Tilemap.tsx"/>
 <layer id="1" name="floor" width="25" height="30">
  <data encoding="csv">
9,9,9,9,9,9,9,9,9,9,9,9,9,9,9,9,9,9,9,9,9,9,9,9,9,
9,9,9,9,9,9,9,9,9,9,9,9,9,9,9,9,9,9,9,9,9,9,9,9,9,
9,9,9,9,9,9,9,9,9,9,9,9,9,9,9,9,9,9,9,9,9,9,9,9,9,
9,9,9,9,9,9,9,9,9,9,9,9,9,9,9,9,9,9,9,9,9,9,9,9,9,
9,9,9,9,9,9,9,9,9,9,9,9,9,9,9,9,9,9,9,9,9,9,9,9,9,
9,9,9,9,9,9,9,9,9,9,9,9,9,9,9,9,9,9,9,9,9,9,9,9,9,
9,9,9,9,9,9,9,9,9,9,9,9,9,9,9,9,9,9,9,9,9,9,9,9,9,
9,9,9,9,9,9,9,9,9,9,9,9,9,9,9,9,9,9,9,9,9,9,9,9,9,
9,9,9,9,9,9,9,9,9,9,9,9,9,9,9,9,9,9,9,9,9,9,9,9,9,
9,9,9,9,9,9,9,9,9,9,9,9,9,9,9,9,9,9,3,9,9,9,9,9,9,
9,9,9,9,9,9,9,9,9,9,9,9,9,9,3,9,9,9,9,9,9,9,9,9,9,
9,9,9,9,9,9,9,9,9,9,9,9,9,9,9,9,9,9,9,3,9,9,3,9,9,
4,4,4,4,4,4,4,4,4,4,4,4,4,4,4,4,4,4,4,4,4,4,4,4,9,
9,9,9,9,9,9,9,9,9,9,9,9,9,9,9,9,4,9,9,9,9,9,9,9,9,
9,9,9,9,9,9,9,9,9,9,9,9,9,9,9,9,4,9,9,9,9,9,9,9,9,
9,9,9,9,9,9,9,9,9,9,9,9,9,9,9,9,4,9,9,9,9,9,9,9,9,
9,2,2,2,2,2,2,2,2,2,2,2,9,9,9,9,4,9,9,9,9,9,9,9,9,
9,2,2,2,2,2,2,2,2,2,2,2,9,9,9,9,4,9,9,9,9,9,9,9,9,
9,2,2,2,2,2,2,2,2,2,2,2,9,9,9,9,4,9,9,9,9,9,9,9,9,
9,2,2,2,2,2,2,2,2,2,2,2,9,9,9,9,4,9,9,9,9,9,9,9,9,
9,2,2,2,2,2,2,2,2,2,2,2,9,9,9,9,4,9,9,9,9,9,9,9,9,
9,2,2,2,2,2,2,2,2,2,2,2,9,9,9,9,4,9,9,9,9,9,9,9,9,
9,2,2,2,2,2,2,2,2,2,2,2,9,9,9,9,4,9,9,9,9,9,9,9,9,
9,2,2,2,2,2,2,2,2,2,2,2,9,9,9,9,4,9,9,9,9,9,9,9,9,
9,2,2,2,2,2,2,2,2,2,2,2,9,9,9,15,4,9,9,9,9,9,9,9,9,
9,2,2,2,2,2,2,2,2,2,2,2,2,2,2,2,4,9,9,9,9,9,9,9,9,
9,2,2,2,2,2,2,2,2,2,2,2,9,9,9,9,4,9,9,9,9,9,9,9,9,
9,2,2,2,2,2,2,2,2,2,2,2,9,9,9,9,4,9,9,9,9,9,9,9,9,
9,2,2,2,2,2,2,2,2,2,2,2,9,9,9,9,4,9,9,9,9,9,9,9,9,
9,9,9,9,9,9,9,9,9,9,9,9,9,9,9,9,4,9,9,9,9,9,9,9,9
</data>
 </layer>
 <layer id="2" name="wall" width="25" height="30">
  <data encoding="csv">
15,15,15,15,15,15,15,15,15,15,15,15,15,15,15,15,15,15,15,15,15,15,15,15,15,
15,0,0,0,0,0,0,0,0,0,0,0,15,3,0,15,15,15,15,15,0,0,0,0,15,
15,0,0,0,0,0,0,0,0,0,0,0,15,0,3,15,15,15,15,15,0,0,0,0,15,
15,0,0,0,0,0,0,0,0,0,0,0,15,0,0,0,0,0,0,0,0,0,0,0,15,
15,0,0,0,0,0,0,0,0,0,0,0,15,3,0,15,15,15,0,0,0,0,0,0,15,
15,0,0,0,0,0,0,0,0,0,0,0,15,0,0,15,15,15,0,0,0,0,0,0,15,
15,0,0,0,0,0,0,0,0,0,0,0,0,0,3,15,15,15,0,0,0,0,0,0,15,
15,0,0,0,0,0,0,0,0,0,0,0,15,0,0,15,15,15,0,0,0,0,0,0,15,
15,0,0,0,0,0,0,0,0,0,0,0,15,3,0,15,15,15,0,0,0,0,0,0,15,
15,15,15,15,15,15,15,15,15,15,15,15,15,0,0,15,15,15,15,15,15,15,15,15,15,
15,15,15,15,15,15,15,15,15,15,15,15,15,0,0,15,15,15,15,15,15,15,15,15,15,
1,15,15,15,1,15,15,15,1,15,15,15,1,0,0,15,15,15,15,15,15,15,15,15,15,
0,0,0,0,0,0,0,0,0,0,0,0,0,0,0,0,0,0,0,0,0,0,0,0,15,
1,15,15,15,1,15,15,15,1,15,15,15,1,15,15,15,0,15,15,15,15,15,15,15,15,
15,15,15,15,15,15,15,15,15,15,15,15,15,15,15,15,0,15,15,15,0,0,0,0,15,
15,15,15,15,15,15,15,15,15,15,15,15,15,15,15,15,0,15,15,15,0,0,0,0,15,
15,0,0,0,0,0,0,0,0,0,0,0,15,15,15,15,0,15,15,15,0,0,0,0,15,
15,0,0,0,0,0,0,0,0,0,0,0,15,15,15,15,0,15,15,15,0,0,0,0,15,
15,0,0,0,0,0,0,0,0,0,0,0,15,15,15,15,0,15,15,15,0,0,0,0,15,
15,0,0,0,0,0,0,0,0,0,0,0,15,15,15,15,0,15,15,15,0,0,0,0,15,
15,0,0,0,0,0,0,0,0,0,0,0,15,15,15,15,0,15,15,15,0,0,0,0,15,
15,0,0,0,0,0,0,0,0,0,0,0,15,15,15,15,0,15,15,15,0,0,0,0,15,
15,0,0,0,0,0,0,0,0,0,0,0,15,15,15,15,0,15,15,15,0,0,0,0,15,
15,0,0,0,0,0,0,0,0,0,0,0,15,15,15,15,0,0,0,0,0,0,0,0,15,
15,0,0,0,0,0,0,0,0,0,0,0,15,15,15,5,0,15,15,15,0,0,0,0,15,
15,0,0,0,0,0,0,0,0,0,0,0,0,0,0,0,0,15,15,15,0,0,0,0,15,
15,0,0,0,0,0,0,0,0,0,0,0,15,15,15,15,0,15,15,15,0,0,0,0,15,
15,0,0,0,0,0,0,0,0,0,0,0,15,15,15,15,0,15,15,15,0,0,0,0,15,
15,0,0,0,0,0,0,0,0,0,0,0,15,15,15,15,0,15,15,15,0,0,0,0,15,
15,15,15,15,15,15,15,15,15,15,15,15,15,15,15,15,15,15,15,15,15,15,15,15,15
</data>
 </layer>
 <layer id="4" name="decoration" width="25" height="30">
  <data encoding="csv">
0,0,0,0,0,0,0,0,0,0,0,0,0,0,0,0,0,0,0,0,0,0,0,0,0,
0,0,0,0,0,0,0,0,0,0,0,0,0,0,0,0,0,0,0,0,0,0,0,0,0,
0,0,0,0,0,0,0,0,0,0,0,0,0,0,0,0,0,0,0,0,0,0,0,0,0,
0,0,0,0,0,0,0,0,0,0,0,0,0,0,0,0,0,0,0,0,0,0,0,0,0,
0,0,0,0,0,0,0,0,0,0,0,0,0,0,0,0,0,0,0,0,0,0,0,13,0,
0,0,0,0,0,0,0,0,0,0,0,0,0,0,0,0,0,0,0,0,0,0,0,0,0,
0,0,0,0,0,0,0,0,0,0,0,0,0,0,0,0,0,0,0,0,0,0,0,0,0,
0,0,0,0,0,0,0,0,0,0,0,0,0,0,0,0,0,0,0,0,0,0,0,0,0,
0,8,0,8,0,8,0,8,0,8,0,8,0,0,0,0,0,0,0,0,0,0,0,0,0,
0,0,0,0,0,0,0,0,0,0,0,0,0,0,0,0,0,0,0,0,0,0,0,0,0,
0,0,0,0,0,0,0,0,0,0,0,0,0,0,0,0,0,0,0,0,0,0,0,0,0,
0,0,0,0,0,0,0,0,0,0,0,0,0,0,0,0,0,0,0,0,0,0,0,0,0,
0,0,0,0,0,0,0,0,0,0,0,0,0,0,0,0,0,0,0,0,0,0,0,0,0,
0,0,0,0,0,0,0,0,0,0,0,0,0,0,0,0,0,0,0,0,0,0,0,0,0,
0,0,0,0,0,0,0,0,0,0,0,0,0,0,0,0,0,0,0,0,14,0,0,14,0,
0,0,0,0,0,0,0,0,0,0,0,0,0,0,0,0,0,0,0,0,0,0,0,0,0,
0,0,0,0,0,0,0,0,0,0,0,0,0,0,0,0,0,0,0,0,14,0,0,14,0,
0,0,0,0,0,0,0,0,0,0,0,0,0,0,0,0,0,0,0,0,0,0,0,0,0,
0,0,0,0,0,0,0,0,0,0,0,0,0,0,0,0,0,0,0,0,14,0,0,14,0,
0,0,0,0,0,0,0,0,0,0,0,0,0,0,0,0,0,0,0,0,0,0,0,0,0,
0,0,0,0,0,0,0,0,0,0,0,0,0,0,0,0,0,0,0,0,14,0,0,14,0,
0,0,0,0,0,0,0,0,0,0,0,0,0,0,0,0,0,0,0,0,0,0,0,0,0,
0,0,0,0,0,0,0,0,0,0,0,0,0,0,0,0,0,0,0,0,14,0,0,14,0,
0,0,0,0,0,0,0,0,0,0,0,0,0,0,0,0,0,0,0,0,0,0,0,0,0,
0,0,0,0,0,0,0,0,0,0,0,0,0,0,0,0,0,0,0,0,14,0,0,14,0,
0,0,0,0,0,0,0,0,0,0,0,0,0,0,0,0,0,0,0,0,0,0,0,0,0,
0,0,0,0,0,0,0,0,0,0,0,0,0,0,0,0,0,0,0,0,14,0,0,14,0,
0,0,0,0,0,0,0,0,0,0,0,0,0,0,0,0,0,0,0,0,0,0,0,0,0,
0,0,0,0,0,0,0,0,0,0,0,0,0,0,0,0,0,0,0,0,14,0,0,14,0,
0,0,0,0,0,0,0,0,0,0,0,0,0,0,0,0,0,0,0,0,0,0,0,0,0
</data>
 </layer>
 <objectgroup id="3" name="objects">
  <object id="1" gid="19" x="2325.25" y="1774.49" width="111" height="111"/>
  <object id="2" gid="21" x="2442.9" y="1772.39" width="111" height="111"/>
  <object id="4" gid="12" x="2552.96" y="555.18" width="111" height="111"/>
 </objectgroup>
</map>
